SamplesLogo/samp-mark.svg

<svg width="1024" height="1024" fill="none" xmlns="http://www.w3.org/2000/svg"><g clip-path="url(#prefix__clip6_94)"><g mask="url(#prefix__mask6_130)" fill-rule="evenodd" clip-path="url(#prefix__clip6_128)"><path d="M860.28 3.72l116.15 87.52c7.35 5.55 8.83 16.02 3.28 23.39L703.33 481.4 560.51 373.78 836.9 7.01c5.54-7.37 16.01-8.84 23.38-3.29zM703.33 481.4L595.56 624.41l-35.05-250.63L703.33 481.4z" fill="#299AD9"/><path d="M604.61 686.26l107.77-143.02 35.05 250.64-142.82-107.62z" fill="#1BC4F9"/><path d="M777.08 1004.63L755.95 855.3 612.96 747.54l26.64 188.38 111.5 84.03c11.62 8.76 28.02-.9 25.98-15.32z" fill="#AD73FB"/><path d="M55.07 460.55l463.36-64.26 71.51 502.21L47.5 489.73c-11.61-8.74-6.82-27.19 7.57-29.18z" fill="#90E2FC"/></g><rect x="308" y="708" rx="50" width="700" height="300" fill="#FFC225"/><path d="M436.46 920.57q10.9 5.23 26.19 5.23 21.62 0 34.02-10.07 4.63-3.76 7.54-8.58 4.89-8.09 4.89-19.15 0-9.88-3.25-16.65-3.02-6.37-7.91-10.56-.3-.26-.61-.52-1.61-1.29-3.31-2.44-3.94-2.67-8.43-4.54-6.37-2.73-12.74-4.88t-11.69-4.48q-5.32-2.38-8.57-5.58-.93-.93-1.59-2.03-1.66-2.72-1.66-6.46 0-3.33 1.45-5.81 1.21-2.07 3.43-3.55 4.87-3.25 13.31-3.25 7.38 0 13.23 2.9 5.84 2.86 11.42 8.97l16.22-16.17q-6.68-7.74-17.14-12.62-10.41-4.87-23.38-4.87-12.21 0-21.97 4.35-7.25 3.21-12.2 8.56-1.68 1.81-3.09 3.87-.45.65-.86 1.32-4.72 7.69-4.72 18.28 0 9.71 3.25 16.13 2.72 5.34 6.9 9.05.81.71 1.67 1.37 5.32 4.04 11.69 6.76 6.37 2.68 12.74 4.75 6.42 2.06 11.73 4.61 5.32 2.51 8.53 6.11.6.67 1.09 1.41 2.16 3.26 2.16 7.95 0 3.12-1.25 5.61-1.41 2.81-4.42 4.81-5.67 3.78-15.2 3.78-10.59 0-17.98-4.05-7.38-4.04-12.96-11.42l-16.22 16.21q8.84 10.42 19.69 15.65zm129.71-123.09L515.24 924h25.58l9.03-23.6h52.05l8.92 23.6h26.1l-50.75-126.52h-20zm27.98 82.39l-18.1-47.88-18.34 47.88h36.44zm57.71-82.39V924h24.48v-75.32l30.76 49.39h16.57l30.98-49.74V924h24.3V797.48h-17.32l-46.17 74.12-46.33-74.12h-17.27zm153 0V924h24.48v-46.98h25.4q11.99 0 21.59-4.8l.07-.04q5.65-2.86 9.91-7.12 2.99-2.99 5.3-6.67.23-.38.45-.75 5.13-8.68 5.13-20.39 0-11.94-5.3-20.68l-.28-.46q-2.35-3.75-5.41-6.78-4.22-4.17-9.8-6.98-.17-.08-.34-.17-9.5-4.7-21.32-4.7h-49.88zm24.48 19.95v39.59h22.85q5.49 0 9.98-2.12.22-.1.43-.21 2.65-1.31 4.65-3.27 1.56-1.53 2.74-3.45 2.72-4.44 2.72-10.72 0-6.15-2.72-10.64-1.3-2.17-3.08-3.84-1.89-1.77-4.31-2.97-.35-.18-.7-.34-4.39-2.03-9.71-2.03h-22.85z" fill="#000" fill-rule="evenodd"/></g></svg>

<svg width="1024.000000" height="1024.000000" viewBox="0 0 1024 1024" fill="none" xmlns="http://www.w3.org/2000/svg" xmlns:xlink="http://www.w3.org/1999/xlink">
	<defs>
		<clipPath id="clip6_128">
			<rect id="mark" width="942.839783" height="1024.000000" transform="translate(41.000000 0.000000)" fill="white" fill-opacity="0"/>
		</clipPath>
		<clipPath id="clip6_94">
			<rect id="samp-mark" width="1024.000000" height="1024.000000" fill="white" fill-opacity="0"/>
		</clipPath>
	</defs>
	<g clip-path="url(#clip6_94)">
		<g clip-path="url(#clip6_128)">
			<mask id="mask6_130" mask-type="alpha" maskUnits="userSpaceOnUse" x="41.000000" y="0.000000" width="942.839783" height="1024.000000">
				<rect id="rect" x="41.000000" width="942.839783" height="1024.000000" fill="#000000" fill-opacity="1.000000"/>
			</mask>
			<g mask="url(#mask6_130)">
				<path id="path" d="M860.28 3.72L976.43 91.24C983.78 96.79 985.26 107.26 979.71 114.63L703.33 481.4L560.51 373.78L836.9 7.01C842.44 -0.36 852.91 -1.83 860.28 3.72ZM703.33 481.4L595.56 624.41L560.51 373.78L703.33 481.4Z" fill="#299AD9" fill-opacity="1.000000" fill-rule="evenodd"/>
				<path id="path" d="M604.61 686.26L712.38 543.24L747.43 793.88L604.61 686.26Z" fill="#1BC4F9" fill-opacity="1.000000" fill-rule="evenodd"/>
				<path id="path" d="M777.08 1004.63L755.95 855.3L612.96 747.54L639.6 935.92L751.1 1019.95C762.72 1028.71 779.12 1019.05 777.08 1004.63Z" fill="#AD73FB" fill-opacity="1.000000" fill-rule="evenodd"/>
				<path id="path" d="M55.07 460.55L518.43 396.29L589.94 898.5L47.5 489.73C35.89 480.99 40.68 462.54 55.07 460.55Z" fill="#90E2FC" fill-opacity="1.000000" fill-rule="evenodd"/>
			</g>
		</g>
		<rect id="rectangle" x="308.000000" y="708.000000" rx="50.000000" width="700.000000" height="300.000000" fill="#FFC225" fill-opacity="1.000000"/>
		<path id="SAMP" d="M436.46 920.57Q447.36 925.8 462.65 925.8Q484.27 925.8 496.67 915.73Q501.3 911.97 504.21 907.15Q509.1 899.06 509.1 888Q509.1 878.12 505.85 871.35Q502.83 864.98 497.94 860.79Q497.64 860.53 497.33 860.27Q495.72 858.98 494.02 857.83Q490.08 855.16 485.59 853.29Q479.22 850.56 472.85 848.41Q466.48 846.26 461.16 843.93Q455.84 841.55 452.59 838.35Q451.66 837.42 451 836.32Q449.34 833.6 449.34 829.86Q449.34 826.53 450.79 824.05Q452 821.98 454.22 820.5Q459.09 817.25 467.53 817.25Q474.91 817.25 480.76 820.15Q486.6 823.01 492.18 829.12L508.4 812.95Q501.72 805.21 491.26 800.33Q480.85 795.46 467.88 795.46Q455.67 795.46 445.91 799.81Q438.66 803.02 433.71 808.37Q432.03 810.18 430.62 812.24Q430.17 812.89 429.76 813.56Q425.04 821.25 425.04 831.84Q425.04 841.55 428.29 847.97Q431.01 853.31 435.19 857.02Q436 857.73 436.86 858.39Q442.18 862.43 448.55 865.15Q454.92 867.83 461.29 869.9Q467.71 871.96 473.02 874.51Q478.34 877.02 481.55 880.62Q482.15 881.29 482.64 882.03Q484.8 885.29 484.8 889.98Q484.8 893.1 483.55 895.59Q482.14 898.4 479.13 900.4Q473.46 904.18 463.93 904.18Q453.34 904.18 445.95 900.13Q438.57 896.09 432.99 888.71L416.77 904.92Q425.61 915.34 436.46 920.57ZM566.17 797.48L515.24 924L540.82 924L549.85 900.4L601.9 900.4L610.82 924L636.92 924L586.17 797.48L566.17 797.48ZM594.15 879.87L576.05 831.99L557.71 879.87L594.15 879.87ZM651.86 797.48L651.86 924L676.34 924L676.34 848.68L707.1 898.07L723.67 898.07L754.65 848.33L754.65 924L778.95 924L778.95 797.48L761.63 797.48L715.46 871.6L669.13 797.48L651.86 797.48ZM804.86 797.48L804.86 924L829.34 924L829.34 877.02L854.74 877.02Q866.73 877.02 876.33 872.22L876.4 872.18Q882.05 869.32 886.31 865.06Q889.3 862.07 891.61 858.39Q891.84 858.01 892.06 857.64Q897.19 848.96 897.19 837.25Q897.19 825.31 891.89 816.57Q891.75 816.34 891.61 816.11Q889.26 812.36 886.2 809.33Q881.98 805.16 876.4 802.35Q876.23 802.27 876.06 802.18Q866.56 797.48 854.74 797.48L804.86 797.48ZM829.34 817.43L829.34 857.02L852.19 857.02Q857.68 857.02 862.17 854.9Q862.39 854.8 862.6 854.69Q865.25 853.38 867.25 851.42Q868.81 849.89 869.99 847.97Q872.71 843.53 872.71 837.25Q872.71 831.1 869.99 826.61Q868.69 824.44 866.91 822.77Q865.02 821 862.6 819.8Q862.25 819.62 861.9 819.46Q857.51 817.43 852.19 817.43L829.34 817.43Z" fill="#000000" fill-opacity="1.000000" fill-rule="evenodd"/>
	</g>
</svg>
